;FLAVOR:Marlin
;TIME:28322
;Filament used: 17.5168m
;Layer height: 0.2
;MINX:60.6
;MINY:50.299
;MINZ:0.3
;MAXX:139.4
;MAXY:149.701
;MAXZ:26.9
;Generated with Cura_SteamEngine master
M140 S95
M105
M190 S95
M104 S230
M105
M109 S230
M82 ;absolute extrusion mode
G21 ;metric values
G90 ;absolute positioning
M82 ;set extruder to absolute mode
M107 ;start with the fan off
G28 X0 Y0 ;move X/Y to min endstops
G28 Z0 ;move Z to min endstops
G1 Z15.0 F9000 ;move the platform down 15mm
G92 E0 ;zero the extruded length
G1 F200 E3 ;extrude 3mm of feed stock
G92 E0 ;zero the extruded length again
G1 F9000
;Put printing message on LCD screen
M117 Printing...
G92 E0
G92 E0
G1 F2700 E-6.5
;LAYER_COUNT:134
G0 F600 X66.904 Y55.307 Z10.9
G0 F7200 X67.901 Y56.639
G0 X69.166 Y56.638
G0 X88.434 Y56.64
G0 X89.718 Y56.639
G0 X90.718 Y56.625
;TIME_ELAPSED:16584.960532
;LAYER:53
;TYPE:FILL
;MESH:LilCNC_x12mmLinearBearingSleeve_ACv3_x1.stl
G1 F2700 E1230.76332
G1 F390 X92.285 Y55.058 E1230.83703
G1 X92.355 Y54.988
G0 F7200 X94.235 Y55.058
G1 F390 X90.822 Y58.471 E1230.99756
G1 X90.752 Y58.541
G0 F7200 X94.163 Y57.08
G1 F390 X96.185 Y55.058 E1231.09267
G1 X96.255 Y54.988
G0 F7200 X97.227 Y55.966
G1 F390 X95.614 Y57.579 E1231.16854
G1 X95.544 Y57.649
G0 F7200 X96.59 Y58.554
G1 F390 X97.239 Y57.904 E1231.19909
G1 X97.309 Y57.834
G0 F7200 X97.24 Y61.804
G1 F390 X90.718 Y68.326 E1231.50587
G1 X90.648 Y68.396
G0 F7200 X90.718 Y66.376
G1 F390 X93.547 Y63.547 E1231.63893
G1 X93.617 Y63.477
G0 F7200 X92.056 Y63.088
G1 F390 X90.718 Y64.425 E1231.70185
G1 X90.648 Y64.495
G0 F7200 X90.718 Y62.475
G1 F390 X91.081 Y62.113 E1231.7189
G0 F7200 X97.24 Y63.754
G1 F390 X90.718 Y70.276 E1232.02567
G1 X90.648 Y70.346
G0 F7200 X90.719 Y72.226
G1 F390 X97.24 Y65.705 E1232.3324
G1 X97.31 Y65.635
G0 F7200 X97.24 Y67.655
G1 F390 X90.719 Y74.176 E1232.63913
G1 X90.649 Y74.246
G0 F7200 X90.719 Y76.126
G1 F390 X97.24 Y69.605 E1232.94586
G1 X97.31 Y69.535
G0 F7200 X97.24 Y71.555
G1 F390 X90.719 Y78.076 E1233.25258
G1 X90.649 Y78.146
G0 F7200 X90.719 Y80.026
G1 F390 X97.24 Y73.505 E1233.55931
G1 X97.31 Y73.435
G0 F7200 X97.24 Y75.456
G1 F390 X90.756 Y81.94 E1233.8643
G1 X90.686 Y82.01
G0 F7200 X92.706 Y81.94
G1 F390 X97.24 Y77.406 E1234.07756
G1 X97.31 Y77.336
G0 F7200 X97.24 Y79.356
G1 F390 X94.656 Y81.94 E1234.19911
G1 X94.586 Y82.01
G0 F7200 X90.56 Y59.113
;TYPE:WALL-INNER
G1 F3600 X90.559 Y55.099 E1234.33261
G1 X90.559 Y54.899 E1234.33927
G1 X90.759 Y54.899 E1234.34357
G1 X96.293 Y54.899 E1234.52763
G1 X96.502 Y54.941 E1234.53473
G1 X97.011 Y55.282 E1234.5551
G1 X97.359 Y55.801 E1234.57589
G1 X97.401 Y56.014 E1234.58311
G1 X97.401 Y80.984 E1235.41361
G1 X97.359 Y81.196 E1235.4208
G1 X97.014 Y81.711 E1235.44142
G1 X96.498 Y82.056 E1235.46206
G1 X96.277 Y82.1 E1235.46956
G1 X90.56 Y82.1 E1235.65971
G1 X90.56 Y61.489 E1236.34523
G1 X90.56 Y60.3 E1236.38478
G1 X90.56 Y59.113 E1236.42426
G0 F7200 X91.069 Y58.723
G1 F3600 X90.954 Y59.153 E1236.43906
G1 X90.648 Y60.299 E1236.46326
G1 X90.954 Y61.447 E1236.48749
G1 X91.069 Y61.876 E1236.50226
G1 X92.225 Y63.03 E1236.55659
G1 X93.8 Y63.451 E1236.61081
G1 X95.377 Y63.03 E1236.6651
G1 X96.531 Y61.876 E1236.71938
G1 X96.952 Y60.299 E1236.77367
G1 X96.531 Y58.723 E1236.82793
G1 X95.377 Y57.569 E1236.88221
G1 X93.8 Y57.148 E1236.9365
G1 X92.225 Y57.569 E1236.99072
G1 X91.069 Y58.723 E1237.04505
G0 F7200 X91.428 Y61.669
G1 F3600 X92.432 Y62.671 E1237.09223
G1 X93.8 Y63.037 E1237.13933
G1 X95.17 Y62.671 E1237.18649
G1 X96.172 Y61.669 E1237.23362
G1 X96.538 Y60.299 E1237.28079
G1 X96.172 Y58.93 E1237.32792
G1 X95.17 Y57.928 E1237.37505
G1 X93.8 Y57.562 E1237.42221
G1 X92.432 Y57.928 E1237.46931
G1 X91.428 Y58.93 E1237.51649
G1 X91.062 Y60.299 E1237.56362
G1 X91.428 Y61.669 E1237.61079
G0 F7200 X90.16 Y79.28
G1 F3600 X90.082 Y79.224 E1237.61398
G1 X90.05 Y79.201 E1237.61529
G1 X90.05 Y79.196 E1237.61546
G1 X90.081 Y79.174
G1 X90.159 Y79.117 E1237.61716
G1 X90.16 Y57.88 E1238.32351
G1 X90.085 Y57.826 E1238.32658
G1 X90.05 Y57.801 E1238.32801
G1 X90.084 Y57.777
G1 X90.159 Y57.722 E1238.32961
G1 X90.159 Y54.514 E1238.43631
G1 X90.173 Y54.499 E1238.43699
G1 X96.331 Y54.499 E1238.6418
G1 X96.657 Y54.564 E1238.65286
G1 X97.301 Y54.995 E1238.67863
G1 X97.735 Y55.644 E1238.7046
G1 X97.801 Y55.976 E1238.71586
G1 X97.801 Y81.025 E1239.54899
G1 X97.737 Y81.351 E1239.56004
G1 X97.303 Y81.998 E1239.58595
G1 X96.653 Y82.433 E1239.61197
G1 X96.313 Y82.5 E1239.62349
G1 X90.16 Y82.5 E1239.82814
G1 X90.16 Y79.28 E1239.93524
G0 F7200 X91.701 Y61.512
G0 X91.787 Y61.462
G1 F3600 X92.639 Y62.312 E1239.97527
G1 X93.8 Y62.623 E1240.01525
G1 X94.963 Y62.312 E1240.05529
G1 X95.813 Y61.462 E1240.09527
G1 X96.124 Y60.299 E1240.13531
G1 X95.813 Y59.137 E1240.17532
G1 X94.963 Y58.287 E1240.2153
G1 X93.8 Y57.976 E1240.25534
G1 X92.639 Y58.287 E1240.29532
G1 X91.787 Y59.137 E1240.33535
G1 X91.476 Y60.299 E1240.37535
G1 X91.787 Y61.462 E1240.41539
G0 F7200 X91.701 Y61.512
G0 X89.847 Y57.561
G0 X89.759 Y57.516
G1 F3600 X89.759 Y54.35 E1240.5207
G1 X90.005 Y54.099 E1240.53239
G1 X96.369 Y54.099 E1240.74405
G1 X96.812 Y54.187 E1240.75907
G1 X97.589 Y54.707 E1240.79017
G1 X98.112 Y55.489 E1240.82146
G1 X98.201 Y55.94 E1240.83675
G1 X98.201 Y81.061 E1241.67228
G1 X98.113 Y81.508 E1241.68743
G1 X97.591 Y82.287 E1241.71862
G1 X96.81 Y82.809 E1241.74986
G1 X96.351 Y82.9 E1241.76543
G1 X89.76 Y82.9 E1241.98465
G1 X89.76 Y79.485 E1242.09823
G1 X89.65 Y79.406 E1242.10273
G1 X89.65 Y78.992 E1242.1165
G1 X89.759 Y78.913 E1242.12098
G1 X89.76 Y58.085 E1242.81372
G1 X89.65 Y58.006 E1242.81823
G1 X89.65 Y57.594 E1242.83193
G1 X89.759 Y57.516 E1242.83639
G0 F7200 X89.359 Y57.31
;TYPE:WALL-OUTER
G1 F1800 X89.359 Y54.187 E1242.94026
G1 X89.836 Y53.699 E1242.96296
G1 X96.407 Y53.699 E1243.18151
G1 X96.967 Y53.81 E1243.2005
G1 X97.879 Y54.42 E1243.23699
G1 X98.488 Y55.332 E1243.27346
G1 X98.601 Y55.902 E1243.29279
G1 X98.601 Y81.099 E1244.13085
G1 X98.489 Y81.665 E1244.15004
G1 X97.879 Y82.576 E1244.1865
G1 X96.967 Y83.185 E1244.22298
G1 X96.389 Y83.3 E1244.24258
G1 X89.36 Y83.3 E1244.47636
G1 X89.36 Y79.69 E1244.59643
G1 X89.25 Y79.611 E1244.60094
G1 X89.25 Y78.788 E1244.62831
G1 X89.359 Y78.709 E1244.63279
G1 X89.36 Y58.29 E1245.31193
G1 X89.25 Y58.211 E1245.31643
G1 X89.25 Y57.388 E1245.3438
G1 X89.359 Y57.31 E1245.34826
G0 F7200 X89.359 Y57.11
G0 X89.859 Y57.11
G0 X91.792 Y61.607
G0 X92.146 Y61.255
G1 F1800 X92.846 Y61.953 E1245.38114
G1 X93.8 Y62.209 E1245.41399
G1 X94.756 Y61.953 E1245.44691
G1 X95.454 Y61.255 E1245.47974
G1 X95.71 Y60.299 E1245.51266
G1 X95.454 Y59.344 E1245.54554
G1 X94.756 Y58.646 E1245.57838
G1 X93.8 Y58.39 E1245.61129
G1 X92.846 Y58.646 E1245.64415
G1 X92.146 Y59.344 E1245.67702
G1 X91.89 Y60.299 E1245.70991
G1 X92.146 Y61.255 E1245.74283
G0 F7200 X92.287 Y61.396
G0 X91.934 Y61.748
G0 X90.967 Y62.05
G0 X90.896 Y62.121
;TYPE:SKIN
G1 F1800 X90.808 Y61.925 E1245.74603
G1 X90.779 Y61.672 E1245.74983
G0 F7200 X90.805 Y61.646
G0 X90.752 Y58.87
G0 X90.802 Y58.82
G1 F1800 X90.827 Y58.513 E1245.75572
G0 F7200 X90.902 Y58.438
G0 X93.8 Y57.936
G0 X94.863 Y58.221
G0 X96.875 Y59.254
G0 X96.946 Y59.182
G1 F1800 X97.07 Y59.341 E1245.75921
G1 X97.163 Y60.379 E1245.77724
G1 X97.06 Y61.33 E1245.7938
G1 X97.185 Y61.488 E1245.79728
G0 F7200 X97.166 Y61.508
G1 F2700 E1239.29728
G0 F7200 X98.181 Y62.137
G0 X99.466 Y62.137
G0 X100.534 Y62.137
G0 X101.819 Y62.137
G0 X102.758 Y62.137
;TYPE:FILL
G1 F2700 E1245.79728
G1 F390 X103.242 Y61.653 E1245.82005
G0 F7200 X104.105 Y62.74
G1 F390 X102.758 Y64.087 E1245.88341
G1 X102.688 Y64.157
G0 F7200 X102.758 Y66.038
G1 F390 X105.394 Y63.401 E1246.00742
G1 X105.464 Y63.331
G0 F7200 X107.469 Y63.276
G1 F390 X102.758 Y67.988 E1246.22903
G1 X102.688 Y68.058
G0 F7200 X102.758 Y69.938
G1 F390 X109.279 Y63.416 E1246.53579
G1 X109.349 Y63.346
G0 F7200 X109.279 Y65.367
G1 F390 X102.758 Y71.888 E1246.84251
G1 X102.688 Y71.958
G0 F7200 X102.758 Y73.838
G1 F390 X109.279 Y67.317 E1247.14924
G1 X109.349 Y67.247
G0 F7200 X109.279 Y69.267
G1 F390 X102.758 Y75.789 E1247.45599
G1 X102.688 Y75.859
G0 F7200 X102.758 Y77.739
G1 F390 X109.279 Y71.217 E1247.76274
G1 X109.349 Y71.147
G0 F7200 X109.279 Y73.167
G1 F390 X102.758 Y79.689 E1248.0695
G1 X102.688 Y79.759
G0 F7200 X102.98 Y81.416
G1 F390 X109.279 Y75.118 E1248.36576
G1 X109.349 Y75.048
G0 F7200 X109.279 Y77.068
G1 F390 X104.407 Y81.94 E1248.59492
G1 X104.337 Y82.01
G0 F7200 X106.358 Y81.94
G1 F390 X109.279 Y79.018 E1248.73234
G1 X109.349 Y78.948
G0 F7200 X109.279 Y80.968
G1 F390 X108.308 Y81.94 E1248.77804
G1 X108.238 Y82.01
G0 F7200 X108.639 Y58.206
G1 F390 X109.279 Y57.566 E1248.80814
G1 X109.349 Y57.496
G0 F7200 X107.551 Y57.344
G1 F390 X109.279 Y55.616 E1248.88942
G1 X109.349 Y55.546
G0 F7200 X107.886 Y55.058
G1 F390 X105.876 Y57.069 E1248.98399
G1 X105.806 Y57.139
G0 F7200 X105.936 Y55.058
G1 F390 X102.758 Y58.237 E1249.13349
G1 X102.688 Y58.307
G0 F7200 X102.758 Y56.287
G1 F390 X103.986 Y55.058 E1249.19128
G1 X104.056 Y54.988
G0 F7200 X108.247 Y59.117
G0 X108.931 Y61.876
;TYPE:WALL-INNER
G1 F3600 X109.046 Y61.446 E1249.20608
G1 X109.352 Y60.299 E1249.24557
G1 X109.046 Y59.152 E1249.28505
G1 X108.931 Y58.723 E1249.29982
G1 X107.775 Y57.569 E1249.35415
G1 X106.2 Y57.148 E1249.40837
G1 X104.623 Y57.569 E1249.46266
G1 X103.469 Y58.723 E1249.51694
G1 X103.048 Y60.299 E1249.5712
G1 X103.469 Y61.876 E1249.62549
G1 X104.623 Y63.03 E1249.67977
G1 X106.2 Y63.451 E1249.73406
G1 X107.775 Y63.03 E1249.78828
G1 X108.931 Y61.876 E1249.84261
G0 F7200 X109.44 Y61.486
G1 F3600 X109.441 Y81.9 E1250.52158
G1 X109.441 Y82.1 E1250.52823
G1 X109.241 Y82.1 E1250.53254
G1 X103.723 Y82.1 E1250.71607
G1 X103.502 Y82.056 E1250.72356
G1 X102.986 Y81.711 E1250.74421
G1 X102.641 Y81.196 E1250.76483
G1 X102.599 Y80.984 E1250.77201
G1 X102.599 Y56.014 E1251.60252
G1 X102.641 Y55.801 E1251.60974
G1 X102.989 Y55.282 E1251.63052
G1 X103.498 Y54.941 E1251.6509
G1 X103.707 Y54.899 E1251.65799
G1 X109.44 Y54.899 E1251.84867
G1 X109.44 Y57.924 E1251.94928
G1 X109.44 Y59.11 E1251.98873
G1 X109.44 Y60.298 E1252.01298
G1 X109.44 Y61.486 E1252.03722
G0 F7200 X108.572 Y61.669
G1 F3600 X108.938 Y60.299 E1252.08439
G1 X108.572 Y58.93 E1252.13152
G1 X107.568 Y57.928 E1252.1787
G1 X106.2 Y57.562 E1252.2258
G1 X104.83 Y57.928 E1252.27296
G1 X103.828 Y58.93 E1252.32009
G1 X103.462 Y60.299 E1252.36722
G1 X103.828 Y61.669 E1252.41439
G1 X104.83 Y62.671 E1252.46152
G1 X106.2 Y63.037 E1252.50868
G1 X107.568 Y62.671 E1252.55578
G1 X108.572 Y61.669 E1252.60296
G0 F7200 X109.84 Y79.119
G1 F3600 X109.918 Y79.175 E1252.60616
G1 X109.95 Y79.198 E1252.60747
G1 X109.95 Y79.203 E1252.60763
G1 X109.919 Y79.225
G1 X109.841 Y79.282 E1252.60934
G1 X109.841 Y82.5 E1252.71637
G1 X103.687 Y82.5 E1252.92105
G1 X103.347 Y82.433 E1252.93258
G1 X102.697 Y81.998 E1252.95859
G1 X102.263 Y81.351 E1252.9845
G1 X102.199 Y81.025 E1252.99555
G1 X102.199 Y55.976 E1253.82868
G1 X102.265 Y55.644 E1253.83994
G1 X102.699 Y54.995 E1253.86591
G1 X103.343 Y54.564 E1253.89168
G1 X103.669 Y54.499 E1253.90274
G1 X109.83 Y54.499 E1254.10766
G1 X109.84 Y54.509 E1254.10813
G1 X109.84 Y57.719 E1254.21489
G1 X109.915 Y57.773 E1254.21797
G1 X109.95 Y57.798 E1254.2194
G1 X109.916 Y57.822
G1 X109.841 Y57.877 E1254.22099
G1 X109.84 Y59.557 E1254.27687
G1 X109.84 Y79.119 E1254.9275
G0 F7200 X108.299 Y61.512
G0 X108.213 Y61.462
G1 F3600 X108.524 Y60.299 E1254.96754
G1 X108.213 Y59.137 E1255.00755
G1 X107.361 Y58.287 E1255.04758
G1 X106.2 Y57.976 E1255.08756
G1 X105.037 Y58.287 E1255.1276
G1 X104.187 Y59.137 E1255.16758
G1 X103.876 Y60.299 E1255.20759
G1 X104.187 Y61.462 E1255.24763
G1 X105.037 Y62.312 E1255.28761
G1 X106.2 Y62.623 E1255.32765
G1 X107.361 Y62.312 E1255.36763
G1 X108.213 Y61.462 E1255.40766
G0 F7200 X108.299 Y61.512
G0 X110.153 Y58.038
G0 X110.241 Y58.083
G1 F3600 X110.24 Y59.557 E1255.45668
G1 X110.24 Y78.914 E1256.1005
G1 X110.35 Y78.993 E1256.105
G1 X110.35 Y79.407 E1256.11877
G1 X110.241 Y79.486 E1256.12325
G1 X110.241 Y82.9 E1256.2368
G1 X103.649 Y82.9 E1256.45605
G1 X103.19 Y82.809 E1256.47161
G1 X102.409 Y82.287 E1256.50286
G1 X101.887 Y81.508 E1256.53405
G1 X101.799 Y81.061 E1256.5492
G1 X101.799 Y55.94 E1257.38473
G1 X101.888 Y55.489 E1257.40002
G1 X102.411 Y54.707 E1257.43131
G1 X103.188 Y54.187 E1257.4624
G1 X103.631 Y54.099 E1257.47743
G1 X109.998 Y54.099 E1257.68919
G1 X110.24 Y54.347 E1257.70072
G1 X110.24 Y57.514 E1257.80605
G1 X110.35 Y57.593 E1257.81056
G1 X110.35 Y58.005 E1257.82426
G1 X110.241 Y58.083 E1257.82872
G0 F7200 X110.641 Y58.289
;TYPE:WALL-OUTER
G1 F1800 X110.64 Y59.557 E1257.87089
G1 X110.64 Y78.709 E1258.50789
G1 X110.75 Y78.788 E1258.51239
G1 X110.75 Y79.611 E1258.53977
G1 X110.641 Y79.69 E1258.54424
G1 X110.641 Y83.3 E1258.66431
G1 X103.611 Y83.3 E1258.89813
G1 X103.033 Y83.185 E1258.91773
G1 X102.121 Y82.576 E1258.95421
G1 X101.511 Y81.665 E1258.99067
G1 X101.399 Y81.099 E1259.00986
G1 X101.399 Y55.902 E1259.84792
G1 X101.512 Y55.332 E1259.86725
G1 X102.121 Y54.42 E1259.90372
G1 X103.033 Y53.81 E1259.94021
G1 X103.593 Y53.699 E1259.9592
G1 X110.166 Y53.699 E1260.17782
G1 X110.64 Y54.185 E1260.2004
G1 X110.64 Y57.309 E1260.30431
G1 X110.75 Y57.388 E1260.30881
G1 X110.75 Y58.211 E1260.33618
G1 X110.641 Y58.289 E1260.34064
G0 F7200 X110.641 Y58.489
G0 X110.141 Y58.488
G0 X108.336 Y61.384
G0 X107.854 Y61.255
G1 F1800 X108.11 Y60.299 E1260.37356
G1 X107.854 Y59.344 E1260.40644
G1 X107.154 Y58.646 E1260.43932
G1 X106.2 Y58.39 E1260.47217
G1 X105.244 Y58.646 E1260.50509
G1 X104.546 Y59.344 E1260.53792
G1 X104.29 Y60.299 E1260.57081
G1 X104.546 Y61.255 E1260.60372
G1 X105.244 Y61.953 E1260.63656
G1 X106.2 Y62.209 E1260.66947
G1 X107.154 Y61.953 E1260.70233
G1 X107.854 Y61.255 E1260.73521
G0 F7200 X107.905 Y61.062
G0 X108.388 Y61.191
G0 X109.194 Y61.642
G0 X109.219 Y61.617
;TYPE:SKIN
G1 F1800 X109.121 Y61.997 E1260.74032
G1 X109.221 Y62.18 E1260.74304
G0 F7200 X109.244 Y62.158
G0 X109.164 Y58.844
G1 F1800 X109.243 Y58.764 E1260.74491
G0 F7200 X109.104 Y58.621
G1 F1800 X109.243 Y58.481 E1260.74819
G0 F7200 X106.2 Y57.936
G0 X105.137 Y58.221
G0 X103.133 Y59.218
G0 X102.963 Y59.388
G1 F1800 X102.911 Y59.722 E1260.75521
G1 X102.854 Y60.628 E1260.77406
G1 X102.958 Y61.372 E1260.78966
G0 F7200 X103.094 Y61.236
G0 X102.793 Y59.275
G1 F1800 X102.961 Y59.107 E1260.79361
G1 F2700 E1254.29361
G0 F7200 X105.018 Y58.253
G0 X106.2 Y57.936
G0 X110.221 Y59.063
G0 X111.506 Y59.064
G0 X130.895 Y59.064
G0 X132.18 Y59.063
G0 X133.119 Y59.079
;TYPE:FILL
G1 F2700 E1260.79361
G1 F390 X134.638 Y57.559 E1260.86509
G1 X134.708 Y57.489
G0 F7200 X134.165 Y56.083
G1 F390 X133.119 Y57.129 E1260.91429
G1 X133.049 Y57.199
G0 F7200 X134.638 Y59.51
G1 F390 X133.119 Y61.029 E1260.98574
G1 X133.049 Y61.099
G0 F7200 X134.638 Y61.46
G1 F390 X133.119 Y62.979 E1261.05718
G1 X133.049 Y63.049
G0 F7200 X134.638 Y63.41
G1 F390 X133.119 Y64.93 E1261.12866
G1 X133.049 Y65
G0 F7200 X134.638 Y65.36
G1 F390 X133.119 Y66.88 E1261.20013
G1 X133.049 Y66.95
G0 F7200 X134.638 Y67.31
G1 F390 X133.119 Y68.83 E1261.2716
G1 X133.049 Y68.9
G0 F7200 X134.638 Y69.261
G1 F390 X133.119 Y70.78 E1261.34305
G1 X133.049 Y70.85
G0 F7200 X134.638 Y71.211
G1 F390 X133.119 Y72.73 E1261.4145
G1 X133.049 Y72.8
G0 F7200 X134.638 Y73.161
G1 F390 X133.119 Y74.681 E1261.48597
G1 X133.049 Y74.751
G0 F7200 X134.638 Y75.111
G1 F390 X133.119 Y76.631 E1261.55745
G1 X133.049 Y76.701
G0 F7200 X134.638 Y77.061
G1 F390 X133.119 Y78.581 E1261.62892
G1 X133.049 Y78.651
G0 F7200 X134.638 Y79.012
G1 F390 X133.119 Y80.531 E1261.70037
G1 X133.049 Y80.601
G0 F7200 X133.558 Y82.042
G1 F390 X134.638 Y80.962 E1261.75117
G1 X134.708 Y80.892
G0 F7200 X134.638 Y82.912
G1 F390 X133.558 Y83.992 E1261.80197
G1 X133.488 Y84.062
G0 F7200 X133.399 Y82.1
;TYPE:WALL-INNER
G1 F3600 X132.96 Y82.1 E1261.81657
G1 X132.96 Y55.225 E1262.71043
G1 X132.96 Y55.032 E1262.71685
G1 X132.959 Y54.993 E1262.71815
G1 X133.153 Y55.031 E1262.72208
G1 X133.313 Y55.138 E1262.72702
G1 X134.061 Y55.639 E1262.75696
G1 X134.669 Y56.547 E1262.7933
G1 X134.8 Y57.211 E1262.81581
G1 X134.8 Y84.74 E1263.73143
G1 X133.399 Y84.74 E1263.77803
G1 X133.399 Y82.1 E1263.86584
